X:60
T:High Part of the Road
Z: id:dc-jig-50
M:6/8
L:1/8
K:G Major
zA|BAB cBc|ded cAG|F2D DED|FED FGA|!
BAB cBc|dcA d2e|fed cAF|AGF G:|!
Bd|g3 def|g2a bag|f3 def|afd cAd|!
g3 def|g2a bag|fed cAF|AGF G:|!

